;START_OF_HEADER
;HEADER_VERSION:0.1
;FLAVOR:Griffin
;GENERATOR.NAME:Cura_SteamEngine
;GENERATOR.VERSION:4.0.0
;GENERATOR.BUILD_DATE:2019-03-19
;TARGET_MACHINE.NAME:Ultimaker 3 Extended
;EXTRUDER_TRAIN.0.INITIAL_TEMPERATURE:205
;EXTRUDER_TRAIN.0.MATERIAL.VOLUME_USED:8615
;EXTRUDER_TRAIN.0.MATERIAL.GUID:506c9f0d-e3aa-4bd4-b2d2-23e2425b1aa9
;EXTRUDER_TRAIN.0.NOZZLE.DIAMETER:0.4
;EXTRUDER_TRAIN.0.NOZZLE.NAME:AA 0.4
;BUILD_PLATE.TYPE:glass
;BUILD_PLATE.INITIAL_TEMPERATURE:60
;PRINT.TIME:8521
;PRINT.GROUPS:1
;PRINT.SIZE.MIN.X:9
;PRINT.SIZE.MIN.Y:6
;PRINT.SIZE.MIN.Z:0.27
;PRINT.SIZE.MAX.X:160.824
;PRINT.SIZE.MAX.Y:151.818
;PRINT.SIZE.MAX.Z:6.97
;END_OF_HEADER
;Generated with Cura_SteamEngine 4.0.0
T0
M82 ;absolute extrusion mode

G92 E0
M109 S205
G0 F15000 X9 Y6 Z2
G280
G1 F1500 E-6.5
;LAYER_COUNT:49
;LAYER:0
M107
M204 S625
M205 X6 Y6
G0 F4285.7 X74.008 Y65.507 Z0.27
M204 S500
M205 X5 Y5
;TYPE:SKIRT
G1 F1500 E0
G1 F1200 X74.089 Y65.419 E0.00213
G1 X74.622 Y64.899 E0.01536
G1 X75.207 Y64.439 E0.02859
G1 X75.839 Y64.045 E0.04183
G1 X76.509 Y63.721 E0.05506
G1 X77.21 Y63.47 E0.0683
G1 X77.933 Y63.297 E0.08151
G1 X78.671 Y63.201 E0.09474
G1 X79.188 Y63.182 E0.10394
G1 X153.812 Y63.183 E1.43045
G1 X154.555 Y63.223 E1.44368
G1 X155.29 Y63.342 E1.45691
G1 X156.008 Y63.54 E1.47015
G1 X156.7 Y63.813 E1.48338
G1 X157.359 Y64.159 E1.49661
G1 X157.977 Y64.574 E1.50984
G1 X158.547 Y65.053 E1.52307
G1 X158.855 Y65.36 E1.5308
G1 X158.937 Y65.447 E1.53293
G1 X159.418 Y66.015 E1.54616
G1 X159.835 Y66.632 E1.5594
G1 X160.183 Y67.289 E1.57261
G1 X160.459 Y67.981 E1.58586
G1 X160.659 Y68.698 E1.59909
G1 X160.781 Y69.432 E1.61232
G1 X160.824 Y70.2 E1.62599
G1 X160.823 Y144.8 E2.95208
G1 X160.783 Y145.543 E2.9653
G1 X160.664 Y146.278 E2.97854
G1 X160.466 Y146.996 E2.99178
G1 X160.193 Y147.688 E3.005
G1 X159.847 Y148.347 E3.01823
G1 X159.432 Y148.965 E3.03147
G1 X158.992 Y149.493 E3.04368
G1 X158.911 Y149.581 E3.04581
G1 X158.378 Y150.101 E3.05905
G1 X157.793 Y150.561 E3.07227
G1 X157.161 Y150.955 E3.08551
G1 X156.491 Y151.279 E3.09874
G1 X155.79 Y151.53 E3.11198
G1 X155.067 Y151.703 E3.12519
G1 X154.329 Y151.799 E3.13842
G1 X153.812 Y151.818 E3.14762
G1 X79.188 Y151.817 E4.47413
G1 X78.445 Y151.777 E4.48736
G1 X77.71 Y151.658 E4.5006
G1 X76.992 Y151.46 E4.51383
G1 X76.3 Y151.187 E4.52706
G1 X75.641 Y150.841 E4.54029
G1 X75.023 Y150.426 E4.55352
G1 X74.453 Y149.947 E4.56676
G1 X74.145 Y149.64 E4.57449
G1 X74.063 Y149.553 E4.57661
G1 X73.582 Y148.985 E4.58984
G1 X73.165 Y148.368 E4.60308
G1 X72.817 Y147.711 E4.6163
G1 X72.541 Y147.019 E4.62954
G1 X72.341 Y146.302 E4.64277
G1 X72.219 Y145.568 E4.656
G1 X72.176 Y144.8 E4.66967
G1 X72.177 Y70.2 E5.99576
G1 X72.217 Y69.457 E6.00899
G1 X72.336 Y68.722 E6.02222
G1 X72.534 Y68.004 E6.03546
G1 X72.807 Y67.312 E6.04869
G1 X73.153 Y66.653 E6.06192
G1 X73.568 Y66.035 E6.07515
G1 X74.008 Y65.507 E6.08737
M204 S625
M205 X6 Y6
G0 F4285.7 X74.317 Y65.791
M204 S500
M205 X5 Y5
G1 F1200 X74.398 Y65.703 E6.08949
G1 X74.915 Y65.2 E6.10231
G1 X75.485 Y64.758 E6.11514
G1 X76.1 Y64.381 E6.12796
G1 X76.753 Y64.074 E6.14079
G1 X77.436 Y63.842 E6.15361
G1 X78.141 Y63.687 E6.16644
G1 X79.188 Y63.602 E6.18511
G1 X153.812 Y63.603 E7.51163
G1 X154.532 Y63.643 E7.52444
G1 X155.244 Y63.762 E7.53728
G1 X155.938 Y63.96 E7.55011
G1 X156.605 Y64.233 E7.56292
G1 X157.239 Y64.578 E7.57575
G1 X157.83 Y64.991 E7.58856
G1 X158.549 Y65.648 E7.60588
G1 X158.631 Y65.735 E7.608
G1 X159.096 Y66.286 E7.62082
G1 X159.497 Y66.886 E7.63365
G1 X159.83 Y67.526 E7.64647
G1 X160.089 Y68.2 E7.65931
G1 X160.272 Y68.897 E7.67212
G1 X160.377 Y69.611 E7.68494
G1 X160.404 Y70.2 E7.69543
G1 X160.403 Y144.8 E9.02151
G1 X160.363 Y145.52 E9.03433
G1 X160.244 Y146.232 E9.04716
G1 X160.046 Y146.926 E9.05999
G1 X159.773 Y147.593 E9.0728
G1 X159.428 Y148.227 E9.08563
G1 X159.015 Y148.818 E9.09845
G1 X158.683 Y149.209 E9.10757
G1 X158.602 Y149.297 E9.1097
G1 X158.085 Y149.8 E9.12252
G1 X157.515 Y150.242 E9.13534
G1 X156.9 Y150.619 E9.14816
G1 X156.247 Y150.926 E9.16099
G1 X155.564 Y151.158 E9.17381
G1 X154.859 Y151.313 E9.18664
G1 X153.812 Y151.398 E9.20531
G1 X79.188 Y151.397 E10.53183
G1 X78.468 Y151.357 E10.54465
G1 X77.756 Y151.238 E10.55748
G1 X77.062 Y151.04 E10.57031
G1 X76.395 Y150.767 E10.58312
G1 X75.761 Y150.422 E10.59595
G1 X75.17 Y150.009 E10.60877
G1 X74.451 Y149.352 E10.62608
G1 X74.369 Y149.265 E10.62821
G1 X73.904 Y148.714 E10.64102
G1 X73.503 Y148.114 E10.65385
G1 X73.17 Y147.474 E10.66667
G1 X72.911 Y146.8 E10.67951
G1 X72.728 Y146.103 E10.69232
G1 X72.623 Y145.389 E10.70515
G1 X72.596 Y144.8 E10.71563
G1 X72.597 Y70.2 E12.04172
G1 X72.637 Y69.48 E12.05453
G1 X72.756 Y68.768 E12.06737
G1 X72.954 Y68.074 E12.0802
G1 X73.227 Y67.407 E12.09301
G1 X73.572 Y66.773 E12.10584
G1 X73.985 Y66.182 E12.11865
G1 X74.317 Y65.791 E12.12777
M204 S625
M205 X6 Y6
G0 F4285.7 X74.626 Y66.076
M204 S500
M205 X5 Y5
G1 F1200 X74.707 Y65.988 E12.1299
G1 X75.208 Y65.502 E12.14231
G1 X75.762 Y65.077 E12.15472
G1 X76.36 Y64.718 E12.16712
G1 X76.996 Y64.43 E12.17953
G1 X77.66 Y64.217 E12.19192
G1 X78.344 Y64.081 E12.20432
G1 X79.188 Y64.022 E12.21936
G1 X153.812 Y64.023 E13.54587
G1 X154.509 Y64.063 E13.55828
G1 X155.196 Y64.182 E13.57068
G1 X155.865 Y64.38 E13.58308
G1 X156.508 Y64.652 E13.59549
G1 X157.115 Y64.996 E13.60789
G1 X157.678 Y65.408 E13.62029
G1 X158.244 Y65.936 E13.63405
G1 X158.326 Y66.023 E13.63618
G1 X158.774 Y66.557 E13.64857
G1 X159.159 Y67.139 E13.66097
G1 X159.475 Y67.762 E13.67339
G1 X159.717 Y68.416 E13.68579
G1 X159.883 Y69.094 E13.69819
G1 X159.97 Y69.786 E13.71059
G1 X159.984 Y70.2 E13.71796
G1 X159.983 Y144.8 E15.04404
G1 X159.943 Y145.497 E15.05645
G1 X159.824 Y146.184 E15.06885
G1 X159.626 Y146.853 E15.08125
G1 X159.354 Y147.496 E15.09366
G1 X159.01 Y148.103 E15.10606
G1 X158.374 Y148.924 E15.12452
G1 X158.293 Y149.012 E15.12665
G1 X157.792 Y149.498 E15.13906
G1 X157.238 Y149.923 E15.15147
G1 X156.64 Y150.282 E15.16387
G1 X156.004 Y150.57 E15.17628
G1 X155.34 Y150.783 E15.18867
G1 X154.656 Y150.919 E15.20107
G1 X153.812 Y150.978 E15.21611
G1 X79.188 Y150.977 E16.54262
G1 X78.491 Y150.937 E16.55503
G1 X77.804 Y150.818 E16.56743
G1 X77.135 Y150.62 E16.57983
G1 X76.492 Y150.348 E16.59224
G1 X75.885 Y150.004 E16.60464
G1 X75.322 Y149.592 E16.61704
G1 X74.756 Y149.064 E16.6308
G1 X74.674 Y148.977 E16.63293
G1 X74.226 Y148.443 E16.64532
G1 X73.841 Y147.861 E16.65772
G1 X73.525 Y147.238 E16.67014
G1 X73.283 Y146.584 E16.68254
G1 X73.117 Y145.906 E16.69495
G1 X73.03 Y145.214 E16.70734
G1 X73.016 Y144.8 E16.71471
G1 X73.017 Y70.2 E18.04079
G1 X73.057 Y69.503 E18.05321
G1 X73.176 Y68.816 E18.0656
G1 X73.374 Y68.147 E18.078
G1 X73.646 Y67.504 E18.09041
G1 X73.99 Y66.897 E18.10281
G1 X74.626 Y66.076 E18.12127
M204 S625
M205 X6 Y6
G0 F4285.7 X74.935 Y66.36
M204 S500
M205 X5 Y5
G1 F1200 X75.016 Y66.272 E18.1234
G1 X75.501 Y65.805 E18.13537
G1 X76.037 Y65.398 E18.14733
G1 X76.618 Y65.058 E18.1593
G1 X77.235 Y64.789 E18.17126
G1 X77.88 Y64.595 E18.18324
G1 X78.543 Y64.479 E18.1952
G1 X79.188 Y64.442 E18.20669
G1 X153.812 Y64.443 E19.5332
G1 X154.484 Y64.483 E19.54517
G1 X155.147 Y64.602 E19.55714
G1 X155.79 Y64.799 E19.56909
G1 X156.406 Y65.071 E19.58106
G1 X156.985 Y65.414 E19.59303
G1 X157.52 Y65.824 E19.60501
G1 X157.938 Y66.224 E19.61529
G1 X158.02 Y66.311 E19.61742
G1 X158.452 Y66.827 E19.62938
G1 X158.82 Y67.391 E19.64135
G1 X159.118 Y67.995 E19.65332
G1 X159.342 Y68.63 E19.66529
G1 X159.49 Y69.286 E19.67725
G1 X159.564 Y70.2 E19.69355
G1 X159.563 Y144.8 E21.01964
G1 X159.523 Y145.472 E21.0316
G1 X159.404 Y146.135 E21.04358
G1 X159.207 Y146.778 E21.05553
G1 X158.935 Y147.394 E21.0675
G1 X158.592 Y147.973 E21.07946
G1 X158.065 Y148.64 E21.09457
G1 X157.984 Y148.728 E21.0967
G1 X157.499 Y149.195 E21.10867
G1 X156.963 Y149.602 E21.12063
G1 X156.382 Y149.942 E21.1326
G1 X155.765 Y150.211 E21.14456
G1 X155.12 Y150.405 E21.15654
G1 X154.457 Y150.521 E21.1685
G1 X153.812 Y150.558 E21.17999
G1 X79.188 Y150.557 E22.5065
G1 X78.516 Y150.517 E22.51847
G1 X77.853 Y150.398 E22.53044
G1 X77.21 Y150.201 E22.54239
G1 X76.594 Y149.929 E22.55436
G1 X76.015 Y149.586 E22.56633
G1 X75.48 Y149.176 E22.57831
G1 X75.062 Y148.776 E22.58859
G1 X74.98 Y148.689 E22.59072
G1 X74.548 Y148.173 E22.60268
G1 X74.18 Y147.609 E22.61465
G1 X73.882 Y147.005 E22.62662
G1 X73.658 Y146.37 E22.63859
G1 X73.51 Y145.714 E22.65055
G1 X73.436 Y144.8 E22.66685
G1 X73.437 Y70.2 E23.99294
G1 X73.477 Y69.528 E24.0049
G1 X73.596 Y68.865 E24.01688
G1 X73.793 Y68.222 E24.02883
G1 X74.065 Y67.606 E24.0408
G1 X74.408 Y67.027 E24.05276
G1 X74.935 Y66.36 E24.06787
M204 S625
M205 X6 Y6
G0 F4285.7 X75.244 Y66.645
M204 S500
M205 X5 Y5
G1 F1200 X75.325 Y66.557 E24.07
G1 X75.792 Y66.108 E24.08152
G1 X76.311 Y65.72 E24.09304
G1 X76.874 Y65.399 E24.10456
G1 X77.472 Y65.15 E24.11607
G1 X78.096 Y64.977 E24.12758
G1 X78.737 Y64.881 E24.1391
G1 X79.188 Y64.862 E24.14713
G1 X153.812 Y64.863 E25.47364
G1 X154.459 Y64.903 E25.48516
G1 X155.095 Y65.022 E25.49667
G1 X155.712 Y65.219 E25.50818
G1 X156.301 Y65.49 E25.5197
G1 X156.851 Y65.832 E25.53122
G1 X157.355 Y66.239 E25.54273
G1 X157.632 Y66.512 E25.54965
G1 X157.714 Y66.599 E25.55177
G1 X158.129 Y67.097 E25.56329
G1 X158.479 Y67.642 E25.57481
G1 X158.759 Y68.226 E25.58632
G1 X158.965 Y68.84 E25.59783
G1 X159.094 Y69.475 E25.60935
G1 X159.144 Y70.2 E25.62227
G1 X159.143 Y144.8 E26.94836
G1 X159.103 Y145.447 E26.95988
G1 X158.984 Y146.083 E26.97138
G1 X158.787 Y146.7 E26.9829
G1 X158.516 Y147.289 E26.99442
G1 X158.174 Y147.839 E27.00593
G1 X157.756 Y148.355 E27.01774
G1 X157.675 Y148.443 E27.01986
G1 X157.208 Y148.892 E27.03138
G1 X156.689 Y149.28 E27.0429
G1 X156.126 Y149.601 E27.05442
G1 X155.528 Y149.85 E27.06593
G1 X154.904 Y150.023 E27.07744
G1 X154.263 Y150.119 E27.08897
G1 X153.812 Y150.138 E27.09699
G1 X79.188 Y150.137 E28.4235
G1 X78.541 Y150.097 E28.43503
G1 X77.905 Y149.978 E28.44653
G1 X77.288 Y149.781 E28.45804
G1 X76.699 Y149.51 E28.46957
G1 X76.149 Y149.168 E28.48108
G1 X75.645 Y148.761 E28.4926
G1 X75.368 Y148.488 E28.49951
G1 X75.286 Y148.401 E28.50163
G1 X74.871 Y147.903 E28.51316
G1 X74.521 Y147.358 E28.52467
G1 X74.241 Y146.774 E28.53618
G1 X74.035 Y146.16 E28.5477
G1 X73.906 Y145.525 E28.55921
G1 X73.856 Y144.8 E28.57213
G1 X73.857 Y70.2 E29.89822
G1 X73.897 Y69.553 E29.90974
G1 X74.016 Y68.917 E29.92125
G1 X74.213 Y68.3 E29.93276
G1 X74.484 Y67.711 E29.94428
G1 X74.826 Y67.161 E29.9558
G1 X75.244 Y66.645 E29.9676
M204 S625
M205 X6 Y6
G0 F4285.7 X75.553 Y66.929
M204 S500
M205 X5 Y5
G1 F1200 X75.634 Y66.841 E29.96973
G1 X76.084 Y66.412 E29.98078
G1 X76.584 Y66.044 E29.99181
G1 X77.128 Y65.743 E30.00287
G1 X77.706 Y65.515 E30.01391
G1 X78.308 Y65.363 E30.02495
G1 X79.188 Y65.282 E30.04066
G1 X153.812 Y65.283 E31.36717
G1 X154.432 Y65.323 E31.37822
G1 X155.042 Y65.442 E31.38926
G1 X155.631 Y65.639 E31.4003
G1 X156.19 Y65.909 E31.41134
G1 X156.71 Y66.249 E31.42238
G1 X157.327 Y66.8 E31.43709
G1 X157.409 Y66.887 E31.43921
G1 X157.805 Y67.366 E31.45026
G1 X158.136 Y67.891 E31.46129
G1 X158.398 Y68.455 E31.47235
G1 X158.584 Y69.047 E31.48338
G1 X158.694 Y69.659 E31.49443
G1 X158.724 Y70.2 E31.50406
G1 X158.723 Y144.8 E32.83015
G1 X158.683 Y145.42 E32.84119
G1 X158.564 Y146.03 E32.85224
G1 X158.367 Y146.619 E32.86328
G1 X158.097 Y147.178 E32.87432
G1 X157.757 Y147.698 E32.88536
G1 X157.447 Y148.071 E32.89398
G1 X157.366 Y148.159 E32.89611
G1 X156.916 Y148.588 E32.90716
G1 X156.416 Y148.956 E32.9182
G1 X155.872 Y149.257 E32.92925
G1 X155.294 Y149.485 E32.94029
G1 X154.692 Y149.637 E32.95133
G1 X153.812 Y149.718 E32.96704
G1 X79.188 Y149.717 E34.29355
G1 X78.568 Y149.677 E34.3046
G1 X77.958 Y149.558 E34.31564
G1 X77.369 Y149.361 E34.32669
G1 X76.81 Y149.091 E34.33772
G1 X76.29 Y148.751 E34.34876
G1 X75.673 Y148.2 E34.36347
G1 X75.591 Y148.113 E34.36559
G1 X75.195 Y147.634 E34.37664
G1 X74.864 Y147.109 E34.38767
G1 X74.602 Y146.545 E34.39873
G1 X74.416 Y145.953 E34.40976
G1 X74.306 Y145.341 E34.42081
G1 X74.276 Y144.8 E34.43044
G1 X74.277 Y70.2 E35.75653
G1 X74.317 Y69.58 E35.76758
G1 X74.436 Y68.97 E35.77862
G1 X74.633 Y68.381 E35.78966
G1 X74.903 Y67.822 E35.8007
G1 X75.243 Y67.302 E35.81174
G1 X75.553 Y66.929 E35.82036
M204 S625
M205 X6 Y6
G0 F4285.7 X75.862 Y67.213
M204 S500
M205 X5 Y5
G1 F1200 X75.943 Y67.125 E35.82249
G1 X76.374 Y66.717 E35.83304
G1 X76.855 Y66.369 E35.84359
G1 X77.379 Y66.09 E35.85415
G1 X77.936 Y65.884 E35.8647
G1 X78.515 Y65.754 E35.87525
G1 X79.188 Y65.702 E35.88725
G1 X153.812 Y65.703 E37.21376
G1 X154.404 Y65.743 E37.22431
G1 X154.986 Y65.862 E37.23487
G1 X155.546 Y66.058 E37.24542
G1 X156.075 Y66.328 E37.25598
G1 X156.563 Y66.666 E37.26653
G1 X157.021 Y67.088 E37.2776
G1 X157.103 Y67.175 E37.27972
G1 X157.48 Y67.634 E37.29028
G1 X157.793 Y68.139 E37.30084
G1 X158.034 Y68.681 E37.31139
G1 X158.201 Y69.251 E37.32195
G1 X158.289 Y69.838 E37.3325
G1 X158.304 Y70.2 E37.33894
G1 X158.303 Y144.8 E38.66503
G1 X158.263 Y145.392 E38.67557
G1 X158.144 Y145.974 E38.68613
G1 X157.948 Y146.534 E38.69668
G1 X157.678 Y147.063 E38.70724
G1 X157.34 Y147.551 E38.71779
G1 X157.138 Y147.787 E38.72331
G1 X157.057 Y147.875 E38.72544
G1 X156.626 Y148.283 E38.73599
G1 X156.145 Y148.631 E38.74654
G1 X155.621 Y148.91 E38.75709
G1 X155.064 Y149.116 E38.76765
G1 X154.485 Y149.246 E38.7782
G1 X153.812 Y149.298 E38.7902
G1 X79.188 Y149.297 E40.11671
G1 X78.596 Y149.257 E40.12726
G1 X78.014 Y149.138 E40.13782
G1 X77.454 Y148.942 E40.14836
G1 X76.925 Y148.672 E40.15892
G1 X76.437 Y148.334 E40.16947
G1 X75.979 Y147.912 E40.18054
G1 X75.897 Y147.825 E40.18267
G1 X75.52 Y147.366 E40.19323
G1 X75.207 Y146.861 E40.20379
G1 X74.966 Y146.319 E40.21433
G1 X74.799 Y145.749 E40.22489
G1 X74.711 Y145.162 E40.23544
G1 X74.696 Y144.8 E40.24188
G1 X74.697 Y70.2 E41.56797
G1 X74.737 Y69.608 E41.57852
G1 X74.856 Y69.026 E41.58908
G1 X75.052 Y68.466 E41.59963
G1 X75.322 Y67.937 E41.61018
G1 X75.66 Y67.449 E41.62074
G1 X75.862 Y67.213 E41.62626
M204 S625
M205 X6 Y6
G0 F4285.7 X76.171 Y67.498
M204 S500
M205 X5 Y5
G1 F1200 X76.252 Y67.41 E41.62838
G1 X76.663 Y67.022 E41.63843
G1 X77.125 Y66.697 E41.64847
G1 X77.627 Y66.44 E41.6585
G1 X78.161 Y66.256 E41.66854
G1 X78.716 Y66.15 E41.67858
G1 X79.188 Y66.122 E41.68699
G1 X153.812 Y66.123 E43.0135
G1 X154.375 Y66.163 E43.02353
G1 X154.927 Y66.282 E43.03357
G1 X155.457 Y66.478 E43.04362
G1 X155.953 Y66.746 E43.05364
G1 X156.407 Y67.082 E43.06368
G1 X156.716 Y67.376 E43.07126
G1 X156.798 Y67.463 E43.07338
G1 X157.155 Y67.901 E43.08343
G1 X157.447 Y68.384 E43.09346
G1 X157.667 Y68.904 E43.1035
G1 X157.813 Y69.449 E43.11353
G1 X157.884 Y70.2 E43.12694
G1 X157.883 Y144.8 E44.45302
G1 X157.843 Y145.363 E44.46306
G1 X157.724 Y145.915 E44.4731
G1 X157.528 Y146.445 E44.48314
G1 X157.26 Y146.941 E44.49316
G1 X156.829 Y147.502 E44.50574
G1 X156.748 Y147.59 E44.50786
G1 X156.337 Y147.978 E44.51791
G1 X155.875 Y148.303 E44.52795
G1 X155.373 Y148.56 E44.53798
G1 X154.839 Y148.744 E44.54802
G1 X154.284 Y148.85 E44.55806
G1 X153.812 Y148.878 E44.56647
G1 X79.188 Y148.877 E45.89298
G1 X78.625 Y148.837 E45.90301
G1 X78.073 Y148.718 E45.91305
G1 X77.543 Y148.522 E45.9231
G1 X77.047 Y148.254 E45.93312
G1 X76.593 Y147.918 E45.94316
G1 X76.284 Y147.624 E45.95074
G1 X76.202 Y147.537 E45.95286
G1 X75.845 Y147.099 E45.96291
G1 X75.553 Y146.616 E45.97294
G1 X75.333 Y146.096 E45.98298
G1 X75.187 Y145.551 E45.99301
G1 X75.116 Y144.8 E46.00642
G1 X75.117 Y70.2 E47.33251
G1 X75.157 Y69.637 E47.34254
G1 X75.276 Y69.085 E47.35258
G1 X75.472 Y68.555 E47.36262
G1 X75.74 Y68.059 E47.37264
G1 X76.171 Y67.498 E47.38522
M204 S625
M205 X6 Y6
G0 F4285.7 X76.48 Y67.782
M204 S500
M205 X5 Y5
G1 F1200 X76.561 Y67.694 E47.38734
G1 X76.951 Y67.329 E47.39684
G1 X77.391 Y67.027 E47.40633
G1 X77.872 Y66.794 E47.41583
G1 X78.382 Y66.634 E47.42533
G1 X78.909 Y66.553 E47.43481
G1 X79.188 Y66.542 E47.43977
G1 X153.812 Y66.543 E48.76628
G1 X154.345 Y66.583 E48.77579
G1 X154.865 Y66.702 E48.78527
G1 X155.362 Y66.897 E48.79476
G1 X155.825 Y67.164 E48.80426
G1 X156.41 Y67.664 E48.81794
G1 X156.492 Y67.751 E48.82006
G1 X156.828 Y68.166 E48.82956
