;START_OF_HEADER
;HEADER_VERSION:0.1
;FLAVOR:Griffin
;GENERATOR.NAME:Cura_SteamEngine
;GENERATOR.VERSION:4.0.0
;GENERATOR.BUILD_DATE:2019-03-19
;TARGET_MACHINE.NAME:Ultimaker 3 Extended
;EXTRUDER_TRAIN.0.INITIAL_TEMPERATURE:205
;EXTRUDER_TRAIN.0.MATERIAL.VOLUME_USED:9084
;EXTRUDER_TRAIN.0.MATERIAL.GUID:506c9f0d-e3aa-4bd4-b2d2-23e2425b1aa9
;EXTRUDER_TRAIN.0.NOZZLE.DIAMETER:0.4
;EXTRUDER_TRAIN.0.NOZZLE.NAME:AA 0.4
;BUILD_PLATE.TYPE:glass
;BUILD_PLATE.INITIAL_TEMPERATURE:60
;PRINT.TIME:8671
;PRINT.GROUPS:1
;PRINT.SIZE.MIN.X:9
;PRINT.SIZE.MIN.Y:6
;PRINT.SIZE.MIN.Z:0.27
;PRINT.SIZE.MAX.X:160.84
;PRINT.SIZE.MAX.Y:151.865
;PRINT.SIZE.MAX.Z:6.97
;END_OF_HEADER
;Generated with Cura_SteamEngine 4.0.0
T0
M82 ;absolute extrusion mode

G92 E0
M109 S205
G0 F15000 X9 Y6 Z2
G280
G1 F1500 E-6.5
;LAYER_COUNT:49
;LAYER:0
M107
M204 S625
M205 X6 Y6
G0 F4285.7 X74.031 Y65.39 Z0.27
M204 S500
M205 X5 Y5
;TYPE:SKIRT
G1 F1500 E0
G1 F1200 X74.568 Y64.875 E0.01323
G1 X74.933 Y64.581 E0.02156
G1 X75.013 Y64.521 E0.02333
G1 X75.632 Y64.107 E0.03657
G1 X76.291 Y63.762 E0.04979
G1 X76.984 Y63.489 E0.06304
G1 X77.701 Y63.293 E0.07625
G1 X78.436 Y63.174 E0.08948
G1 X79.171 Y63.135 E0.10257
G1 X153.829 Y63.136 E1.42969
G1 X154.572 Y63.176 E1.44291
G1 X155.307 Y63.295 E1.45615
G1 X156.025 Y63.493 E1.46939
G1 X156.717 Y63.766 E1.48261
G1 X157.376 Y64.112 E1.49584
G1 X157.909 Y64.464 E1.5072
G1 X157.99 Y64.523 E1.50898
G1 X158.567 Y64.993 E1.52221
G1 X159.091 Y65.522 E1.53544
G1 X159.555 Y66.105 E1.54869
G1 X159.953 Y66.733 E1.5619
G1 X160.282 Y67.401 E1.57514
G1 X160.538 Y68.1 E1.58837
G1 X160.716 Y68.823 E1.60161
G1 X160.817 Y69.56 E1.61483
G1 X160.84 Y70.125 E1.62488
G1 X160.839 Y144.875 E2.95364
G1 X160.799 Y145.618 E2.96686
G1 X160.68 Y146.353 E2.9801
G1 X160.482 Y147.071 E2.99334
G1 X160.209 Y147.763 E3.00656
G1 X159.863 Y148.422 E3.01979
G1 X159.448 Y149.04 E3.03303
G1 X158.969 Y149.61 E3.04626
G1 X158.432 Y150.125 E3.05949
G1 X158.067 Y150.419 E3.06782
G1 X157.987 Y150.479 E3.0696
G1 X157.368 Y150.893 E3.08283
G1 X156.709 Y151.238 E3.09606
G1 X156.016 Y151.511 E3.1093
G1 X155.299 Y151.707 E3.12251
G1 X154.564 Y151.826 E3.13575
G1 X153.829 Y151.865 E3.14883
G1 X79.171 Y151.864 E4.47595
G1 X78.428 Y151.824 E4.48917
G1 X77.693 Y151.705 E4.50241
G1 X76.975 Y151.507 E4.51565
G1 X76.283 Y151.234 E4.52887
G1 X75.624 Y150.888 E4.5421
G1 X75.091 Y150.536 E4.55346
G1 X75.01 Y150.477 E4.55524
G1 X74.433 Y150.007 E4.56847
G1 X73.909 Y149.478 E4.5817
G1 X73.445 Y148.895 E4.59495
G1 X73.047 Y148.267 E4.60817
G1 X72.718 Y147.599 E4.6214
G1 X72.462 Y146.9 E4.63463
G1 X72.284 Y146.177 E4.64787
G1 X72.183 Y145.44 E4.66109
G1 X72.16 Y144.875 E4.67115
G1 X72.161 Y70.125 E5.9999
G1 X72.201 Y69.382 E6.01313
G1 X72.32 Y68.647 E6.02636
G1 X72.518 Y67.929 E6.0396
G1 X72.791 Y67.237 E6.05283
G1 X73.137 Y66.578 E6.06606
G1 X73.552 Y65.96 E6.07929
G1 X74.031 Y65.39 E6.09252
M204 S625
M205 X6 Y6
G0 F4285.7 X74.445 Y65.565
M204 S500
M205 X5 Y5
G1 F1200 X75.185 Y64.917 E6.11001
G1 X75.265 Y64.857 E6.11179
G1 X75.865 Y64.457 E6.1246
G1 X76.506 Y64.125 E6.13744
G1 X77.18 Y63.867 E6.15027
G1 X77.878 Y63.685 E6.16309
G1 X78.591 Y63.581 E6.1759
G1 X79.171 Y63.555 E6.18622
G1 X153.829 Y63.556 E7.51334
G1 X154.549 Y63.596 E7.52615
G1 X155.261 Y63.715 E7.53899
G1 X155.955 Y63.913 E7.55181
G1 X156.622 Y64.186 E7.56463
G1 X157.256 Y64.531 E7.57746
G1 X157.662 Y64.804 E7.58615
G1 X157.743 Y64.863 E7.58793
G1 X158.302 Y65.319 E7.60076
G1 X158.806 Y65.835 E7.61358
G1 X159.251 Y66.403 E7.62641
G1 X159.63 Y67.017 E7.63923
G1 X159.939 Y67.669 E7.65206
G1 X160.174 Y68.351 E7.66488
G1 X160.331 Y69.055 E7.6777
G1 X160.42 Y70.125 E7.69679
G1 X160.419 Y144.875 E9.02554
G1 X160.379 Y145.595 E9.03836
G1 X160.26 Y146.307 E9.05119
G1 X160.062 Y147.001 E9.06402
G1 X159.789 Y147.668 E9.07683
G1 X159.444 Y148.302 E9.08966
G1 X159.031 Y148.893 E9.10248
G1 X158.555 Y149.435 E9.1153
G1 X157.815 Y150.083 E9.13279
G1 X157.735 Y150.143 E9.13457
G1 X157.135 Y150.543 E9.14738
G1 X156.494 Y150.875 E9.16022
G1 X155.82 Y151.133 E9.17304
G1 X155.122 Y151.315 E9.18587
G1 X154.409 Y151.419 E9.19868
G1 X153.829 Y151.445 E9.209
G1 X79.171 Y151.444 E10.53611
G1 X78.451 Y151.404 E10.54893
G1 X77.739 Y151.285 E10.56177
G1 X77.045 Y151.087 E10.57459
G1 X76.378 Y150.814 E10.58741
G1 X75.744 Y150.469 E10.60024
G1 X75.338 Y150.196 E10.60893
G1 X75.257 Y150.137 E10.61071
G1 X74.698 Y149.681 E10.62354
G1 X74.194 Y149.165 E10.63636
G1 X73.749 Y148.597 E10.64919
G1 X73.37 Y147.983 E10.66201
G1 X73.061 Y147.331 E10.67484
G1 X72.826 Y146.649 E10.68766
G1 X72.669 Y145.945 E10.70048
G1 X72.58 Y144.875 E10.71957
G1 X72.581 Y70.125 E12.04832
G1 X72.621 Y69.405 E12.06114
G1 X72.74 Y68.693 E12.07397
G1 X72.938 Y67.999 E12.0868
G1 X73.211 Y67.332 E12.09961
G1 X73.556 Y66.698 E12.11244
G1 X73.969 Y66.107 E12.12526
G1 X74.445 Y65.565 E12.13808
M204 S625
M205 X6 Y6
G0 F4285.7 X74.859 Y65.746
M204 S500
M205 X5 Y5
G1 F1200 X75.437 Y65.253 E12.15159
G1 X75.517 Y65.193 E12.15336
G1 X76.098 Y64.807 E12.16576
G1 X76.72 Y64.49 E12.17817
G1 X77.374 Y64.246 E12.19058
G1 X78.051 Y64.079 E12.20298
G1 X78.743 Y63.99 E12.21538
G1 X79.171 Y63.975 E12.22299
G1 X153.829 Y63.976 E13.55011
G1 X154.526 Y64.016 E13.56252
G1 X155.213 Y64.135 E13.57492
G1 X155.882 Y64.333 E13.58732
G1 X156.525 Y64.605 E13.59973
G1 X157.415 Y65.143 E13.61821
G1 X157.496 Y65.202 E13.62
G1 X158.035 Y65.645 E13.6324
G1 X158.52 Y66.146 E13.64479
G1 X158.945 Y66.7 E13.6572
G1 X159.304 Y67.298 E13.6696
G1 X159.592 Y67.933 E13.682
G1 X159.805 Y68.598 E13.69441
G1 X159.941 Y69.282 E13.70681
G1 X160 Y70.125 E13.72183
G1 X159.999 Y144.875 E15.05058
G1 X159.959 Y145.572 E15.06299
G1 X159.84 Y146.259 E15.07539
G1 X159.642 Y146.928 E15.08779
G1 X159.37 Y147.571 E15.1002
G1 X159.026 Y148.178 E15.1126
G1 X158.614 Y148.741 E15.125
G1 X158.141 Y149.254 E15.13741
G1 X157.563 Y149.747 E15.15091
G1 X157.483 Y149.807 E15.15269
G1 X156.902 Y150.193 E15.16509
G1 X156.28 Y150.51 E15.1775
G1 X155.626 Y150.754 E15.18991
G1 X154.949 Y150.921 E15.2023
G1 X154.257 Y151.01 E15.2147
G1 X153.829 Y151.025 E15.22232
G1 X79.171 Y151.024 E16.54944
G1 X78.474 Y150.984 E16.56185
G1 X77.787 Y150.865 E16.57424
G1 X77.118 Y150.667 E16.58664
G1 X76.475 Y150.395 E16.59905
G1 X75.585 Y149.857 E16.61754
G1 X75.504 Y149.798 E16.61932
G1 X74.965 Y149.355 E16.63172
G1 X74.48 Y148.854 E16.64412
G1 X74.055 Y148.3 E16.65653
G1 X73.696 Y147.702 E16.66893
G1 X73.408 Y147.067 E16.68132
G1 X73.195 Y146.402 E16.69373
G1 X73.059 Y145.718 E16.70613
G1 X73 Y144.875 E16.72115
G1 X73.001 Y70.125 E18.04991
G1 X73.041 Y69.428 E18.06232
G1 X73.16 Y68.741 E18.07471
G1 X73.358 Y68.072 E18.08711
G1 X73.63 Y67.429 E18.09952
G1 X73.974 Y66.822 E18.11193
G1 X74.386 Y66.259 E18.12433
G1 X74.859 Y65.746 E18.13673
M204 S625
M205 X6 Y6
G0 F4285.7 X74.802 Y66.417
M204 S500
M205 X5 Y5
G1 F1200 X75.271 Y65.935 E18.14869
G1 X75.689 Y65.589 E18.15833
G1 X75.769 Y65.529 E18.16011
G1 X76.331 Y65.158 E18.17208
G1 X76.932 Y64.856 E18.18404
G1 X77.565 Y64.627 E18.196
G1 X78.221 Y64.475 E18.20797
G1 X79.171 Y64.395 E18.22492
G1 X153.829 Y64.396 E19.55204
G1 X154.501 Y64.436 E19.564
G1 X155.164 Y64.555 E19.57598
G1 X155.807 Y64.752 E19.58793
G1 X156.423 Y65.024 E19.5999
G1 X157.167 Y65.483 E19.61544
G1 X157.248 Y65.542 E19.61722
G1 X157.768 Y65.97 E19.6292
G1 X158.233 Y66.456 E19.64115
G1 X158.638 Y66.995 E19.65314
G1 X158.975 Y67.577 E19.66509
G1 X159.242 Y68.195 E19.67706
G1 X159.433 Y68.841 E19.68903
G1 X159.546 Y69.504 E19.70099
G1 X159.58 Y70.125 E19.71204
G1 X159.579 Y144.875 E21.0408
G1 X159.539 Y145.547 E21.05277
G1 X159.42 Y146.21 E21.06474
G1 X159.223 Y146.853 E21.07669
G1 X158.951 Y147.469 E21.08866
G1 X158.608 Y148.048 E21.10063
G1 X158.198 Y148.583 E21.11261
G1 X157.729 Y149.065 E21.12456
G1 X157.311 Y149.411 E21.13421
G1 X157.231 Y149.471 E21.13599
G1 X156.669 Y149.842 E21.14796
G1 X156.068 Y150.144 E21.15991
G1 X155.435 Y150.373 E21.17188
G1 X154.779 Y150.525 E21.18385
G1 X153.829 Y150.605 E21.2008
G1 X79.171 Y150.604 E22.52791
G1 X78.499 Y150.564 E22.53988
G1 X77.836 Y150.445 E22.55185
G1 X77.193 Y150.248 E22.56381
G1 X76.577 Y149.976 E22.57578
G1 X75.833 Y149.517 E22.59132
G1 X75.752 Y149.458 E22.5931
G1 X75.232 Y149.03 E22.60507
G1 X74.767 Y148.544 E22.61703
G1 X74.362 Y148.005 E22.62901
G1 X74.025 Y147.423 E22.64097
G1 X73.758 Y146.805 E22.65293
G1 X73.567 Y146.159 E22.66491
G1 X73.454 Y145.496 E22.67686
G1 X73.42 Y144.875 E22.68792
G1 X73.421 Y70.125 E24.01667
G1 X73.461 Y69.453 E24.02864
G1 X73.58 Y68.79 E24.04061
G1 X73.777 Y68.147 E24.05257
G1 X74.049 Y67.531 E24.06454
G1 X74.392 Y66.952 E24.0765
G1 X74.802 Y66.417 E24.08848
M204 S625
M205 X6 Y6
G0 F4285.7 X75.217 Y66.582
M204 S500
M205 X5 Y5
G1 F1200 X75.683 Y66.132 E24.1
G1 X75.941 Y65.925 E24.10588
G1 X76.021 Y65.865 E24.10766
G1 X76.562 Y65.509 E24.11917
G1 X77.143 Y65.222 E24.13069
G1 X77.755 Y65.01 E24.1422
G1 X78.388 Y64.874 E24.15371
G1 X79.171 Y64.815 E24.16767
G1 X153.829 Y64.816 E25.49479
G1 X154.476 Y64.856 E25.50631
G1 X155.112 Y64.975 E25.51781
G1 X155.729 Y65.172 E25.52932
G1 X156.318 Y65.443 E25.54085
G1 X156.92 Y65.822 E25.5535
G1 X157.001 Y65.881 E25.55528
G1 X157.5 Y66.294 E25.56679
G1 X157.944 Y66.766 E25.57831
G1 X158.327 Y67.288 E25.58982
G1 X158.643 Y67.854 E25.60134
G1 X158.887 Y68.454 E25.61286
G1 X159.055 Y69.079 E25.62436
G1 X159.144 Y69.721 E25.63588
G1 X159.16 Y70.125 E25.64307
G1 X159.159 Y144.875 E26.97182
G1 X159.119 Y145.522 E26.98335
G1 X159 Y146.158 E26.99485
G1 X158.803 Y146.775 E27.00636
G1 X158.532 Y147.364 E27.01789
G1 X158.19 Y147.914 E27.0294
G1 X157.783 Y148.418 E27.04091
G1 X157.317 Y148.868 E27.05243
G1 X157.059 Y149.075 E27.05831
G1 X156.979 Y149.135 E27.06009
G1 X156.438 Y149.491 E27.0716
G1 X155.857 Y149.778 E27.08312
G1 X155.245 Y149.99 E27.09463
G1 X154.612 Y150.126 E27.10614
G1 X153.829 Y150.185 E27.1201
G1 X79.171 Y150.184 E28.44722
G1 X78.524 Y150.144 E28.45874
G1 X77.888 Y150.025 E28.47024
G1 X77.271 Y149.828 E28.48176
G1 X76.682 Y149.557 E28.49328
G1 X76.08 Y149.178 E28.50593
G1 X75.999 Y149.119 E28.50771
G1 X75.5 Y148.706 E28.51922
G1 X75.056 Y148.234 E28.53074
G1 X74.673 Y147.712 E28.54225
G1 X74.357 Y147.146 E28.55377
G1 X74.113 Y146.546 E28.56529
G1 X73.945 Y145.921 E28.57679
G1 X73.856 Y145.279 E28.58831
G1 X73.84 Y144.875 E28.5955
G1 X73.841 Y70.125 E29.92425
G1 X73.881 Y69.478 E29.93578
G1 X74 Y68.842 E29.94728
G1 X74.197 Y68.225 E29.95879
G1 X74.468 Y67.636 E29.97032
G1 X74.81 Y67.086 E29.98183
G1 X75.217 Y66.582 E29.99334
M204 S625
M205 X6 Y6
G0 F4285.7 X75.631 Y66.755
M204 S500
M205 X5 Y5
G1 F1200 X76.193 Y66.261 E30.00665
G1 X76.273 Y66.201 E30.00842
G1 X76.793 Y65.861 E30.01947
G1 X77.352 Y65.59 E30.03051
G1 X77.942 Y65.394 E30.04156
G1 X78.551 Y65.275 E30.05259
G1 X79.171 Y65.235 E30.06364
G1 X153.829 Y65.236 E31.39075
G1 X154.449 Y65.276 E31.4018
G1 X155.059 Y65.395 E31.41285
G1 X155.648 Y65.592 E31.42389
G1 X156.207 Y65.862 E31.43492
G1 X156.673 Y66.162 E31.44477
G1 X156.754 Y66.221 E31.44655
G1 X157.231 Y66.618 E31.45759
G1 X157.654 Y67.074 E31.46864
G1 X158.015 Y67.579 E31.47968
G1 X158.308 Y68.127 E31.49072
G1 X158.528 Y68.708 E31.50177
G1 X158.671 Y69.313 E31.51282
G1 X158.74 Y70.125 E31.5273
G1 X158.739 Y144.875 E32.85606
G1 X158.699 Y145.495 E32.8671
G1 X158.58 Y146.105 E32.87815
G1 X158.383 Y146.694 E32.88919
G1 X158.113 Y147.253 E32.90022
G1 X157.773 Y147.773 E32.91127
G1 X157.369 Y148.245 E32.92231
G1 X156.807 Y148.739 E32.93561
G1 X156.727 Y148.799 E32.93739
G1 X156.207 Y149.139 E32.94844
G1 X155.648 Y149.41 E32.95948
G1 X155.058 Y149.606 E32.97053
G1 X154.449 Y149.725 E32.98156
G1 X153.829 Y149.765 E32.9926
G1 X79.171 Y149.764 E34.31972
G1 X78.551 Y149.724 E34.33077
G1 X77.941 Y149.605 E34.34181
G1 X77.352 Y149.408 E34.35285
G1 X76.793 Y149.138 E34.36389
G1 X76.327 Y148.838 E34.37374
G1 X76.246 Y148.779 E34.37552
G1 X75.769 Y148.382 E34.38655
G1 X75.346 Y147.926 E34.39761
G1 X74.985 Y147.421 E34.40865
G1 X74.692 Y146.873 E34.41969
G1 X74.472 Y146.292 E34.43074
G1 X74.329 Y145.687 E34.44179
G1 X74.26 Y144.875 E34.45627
G1 X74.261 Y70.125 E35.78503
G1 X74.301 Y69.505 E35.79607
G1 X74.42 Y68.895 E35.80712
G1 X74.617 Y68.306 E35.81816
G1 X74.887 Y67.747 E35.82919
G1 X75.227 Y67.227 E35.84024
G1 X75.631 Y66.755 E35.85128
M204 S625
M205 X6 Y6
G0 F4285.7 X76.045 Y66.936
M204 S500
M205 X5 Y5
G1 F1200 X76.445 Y66.597 E35.8606
G1 X76.525 Y66.537 E35.86238
G1 X77.023 Y66.214 E35.87293
G1 X77.56 Y65.96 E35.88349
G1 X78.125 Y65.781 E35.89403
G1 X78.71 Y65.679 E35.90458
G1 X79.171 Y65.655 E35.91279
G1 X153.829 Y65.656 E37.23991
G1 X154.421 Y65.696 E37.25045
G1 X155.003 Y65.815 E37.26101
G1 X155.563 Y66.011 E37.27156
G1 X156.092 Y66.281 E37.28212
G1 X156.425 Y66.501 E37.28921
G1 X156.506 Y66.56 E37.29099
G1 X156.962 Y66.941 E37.30156
G1 X157.362 Y67.38 E37.31211
G1 X157.699 Y67.869 E37.32267
G1 X157.968 Y68.398 E37.33322
G1 X158.163 Y68.958 E37.34376
G1 X158.281 Y69.54 E37.35432
G1 X158.32 Y70.125 E37.36474
G1 X158.319 Y144.875 E38.69349
G1 X158.279 Y145.467 E38.70404
G1 X158.16 Y146.049 E38.7146
G1 X157.964 Y146.609 E38.72515
G1 X157.694 Y147.138 E38.7357
G1 X157.356 Y147.626 E38.74626
G1 X156.955 Y148.064 E38.75681
G1 X156.555 Y148.403 E38.76613
G1 X156.475 Y148.463 E38.76791
G1 X155.977 Y148.786 E38.77846
G1 X155.44 Y149.04 E38.78902
G1 X154.875 Y149.219 E38.79956
G1 X154.29 Y149.321 E38.81011
G1 X153.829 Y149.345 E38.81832
G1 X79.171 Y149.344 E40.14544
G1 X78.579 Y149.304 E40.15598
G1 X77.997 Y149.185 E40.16654
G1 X77.437 Y148.989 E40.17709
G1 X76.908 Y148.719 E40.18765
G1 X76.575 Y148.499 E40.19474
G1 X76.494 Y148.44 E40.19652
G1 X76.038 Y148.059 E40.20709
G1 X75.638 Y147.62 E40.21764
G1 X75.301 Y147.131 E40.2282
G1 X75.032 Y146.602 E40.23875
G1 X74.837 Y146.042 E40.24929
G1 X74.719 Y145.46 E40.25985
G1 X74.68 Y144.875 E40.27027
G1 X74.681 Y70.125 E41.59902
G1 X74.721 Y69.533 E41.60957
G1 X74.84 Y68.951 E41.62013
G1 X75.036 Y68.391 E41.63068
G1 X75.306 Y67.862 E41.64124
G1 X75.644 Y67.374 E41.65179
G1 X76.045 Y66.936 E41.66234
M204 S625
M205 X6 Y6
G0 F4285.7 X76.06 Y67.53
M204 S500
M205 X5 Y5
G1 F1200 X76.457 Y67.128 E41.67239
G1 X76.697 Y66.933 E41.67788
G1 X76.777 Y66.873 E41.67966
G1 X77.252 Y66.567 E41.68971
G1 X77.765 Y66.331 E41.69974
G1 X78.306 Y66.17 E41.70978
G1 X78.864 Y66.087 E41.7198
G1 X79.171 Y66.075 E41.72527
G1 X153.829 Y66.076 E43.05238
G1 X154.392 Y66.116 E43.06242
G1 X154.944 Y66.235 E43.07246
G1 X155.474 Y66.431 E43.0825
G1 X156.178 Y66.841 E43.09698
G1 X156.259 Y66.9 E43.09876
G1 X156.691 Y67.264 E43.10881
G1 X157.067 Y67.685 E43.11884
G1 X157.38 Y68.155 E43.12888
G1 X157.623 Y68.664 E43.1389
G1 X157.792 Y69.203 E43.14894
G1 X157.883 Y69.76 E43.15898
G1 X157.9 Y70.125 E43.16547
G1 X157.899 Y144.875 E44.49423
G1 X157.859 Y145.438 E44.50426
G1 X157.74 Y145.99 E44.5143
G1 X157.544 Y146.52 E44.52434
G1 X157.276 Y147.016 E44.53436
G1 X156.94 Y147.47 E44.5444
G1 X156.543 Y147.872 E44.55445
G1 X156.303 Y148.067 E44.55994
G1 X156.223 Y148.127 E44.56172
G1 X155.748 Y148.433 E44.57177
G1 X155.235 Y148.669 E44.5818
G1 X154.694 Y148.83 E44.59184
G1 X154.136 Y148.913 E44.60187
G1 X153.829 Y148.925 E44.60733
G1 X79.171 Y148.924 E45.93445
G1 X78.608 Y148.884 E45.94448
G1 X78.056 Y148.765 E45.95452
G1 X77.526 Y148.569 E45.96456
G1 X76.822 Y148.159 E45.97904
G1 X76.741 Y148.1 E45.98082
G1 X76.309 Y147.736 E45.99087
G1 X75.933 Y147.315 E46.0009
G1 X75.62 Y146.845 E46.01094
G1 X75.377 Y146.336 E46.02096
G1 X75.208 Y145.797 E46.03101
G1 X75.117 Y145.24 E46.04104
G1 X75.1 Y144.875 E46.04753
G1 X75.101 Y70.125 E47.37629
G1 X75.141 Y69.562 E47.38632
G1 X75.26 Y69.01 E47.39636
G1 X75.456 Y68.48 E47.4064
G1 X75.724 Y67.984 E47.41642
G1 X76.06 Y67.53 E47.42646
M204 S625
M205 X6 Y6
G0 F4285.7 X76.476 Y67.695
M204 S500
M205 X5 Y5
G1 F1200 X76.949 Y67.269 E47.43778
G1 X77.029 Y67.209 E47.43956
G1 X77.479 Y66.921 E47.44905
G1 X77.967 Y66.704 E47.45855
G1 X78.482 Y66.562 E47.46804
G1 X79.171 Y66.495 E47.48035
G1 X153.829 Y66.496 E48.80747
G1 X154.362 Y66.536 E48.81697
G1 X154.882 Y66.655 E48.82645
G1 X155.379 Y66.85 E48.83594
G1 X155.931 Y67.18 E48.84738
G1 X156.012 Y67.239 E48.84916
