;START_OF_HEADER
;HEADER_VERSION:0.1
;FLAVOR:Griffin
;GENERATOR.NAME:Cura_SteamEngine
;GENERATOR.VERSION:4.0.0
;GENERATOR.BUILD_DATE:2019-03-19
;TARGET_MACHINE.NAME:Ultimaker 3 Extended
;EXTRUDER_TRAIN.0.INITIAL_TEMPERATURE:245
;EXTRUDER_TRAIN.0.MATERIAL.VOLUME_USED:11541
;EXTRUDER_TRAIN.0.MATERIAL.GUID:5253a75a-27dc-4043-910f-753ae11bc417
;EXTRUDER_TRAIN.0.NOZZLE.DIAMETER:0.4
;EXTRUDER_TRAIN.0.NOZZLE.NAME:AA 0.4
;BUILD_PLATE.TYPE:glass
;BUILD_PLATE.INITIAL_TEMPERATURE:80
;PRINT.TIME:5642
;PRINT.GROUPS:1
;PRINT.SIZE.MIN.X:9
;PRINT.SIZE.MIN.Y:6
;PRINT.SIZE.MIN.Z:0.27
;PRINT.SIZE.MAX.X:150.845
;PRINT.SIZE.MAX.Y:178.016
;PRINT.SIZE.MAX.Z:5.07
;END_OF_HEADER
;Generated with Cura_SteamEngine 4.0.0
T0
M82 ;absolute extrusion mode

G92 E0
M109 S245
G0 F15000 X9 Y6 Z2
G280
G1 F1500 E-6.5
;LAYER_COUNT:18
;LAYER:0
M107
M204 S625
M205 X6 Y6
G0 F5000 X64.168 Y59.168 Z0.27
M204 S500
M205 X5 Y5
;TYPE:SKIRT
G1 F1500 E0
G1 F1200 X64.303 Y59.032 E0.00341
G1 X64.855 Y58.533 E0.01663
G1 X65.457 Y58.095 E0.02987
G1 X66.103 Y57.725 E0.0431
G1 X66.785 Y57.426 E0.05634
G1 X67.494 Y57.203 E0.06955
G1 X68.224 Y57.056 E0.08279
G1 X69.221 Y56.984 E0.10056
G1 X143.779 Y56.985 E1.4259
G1 X144.522 Y57.025 E1.43912
G1 X145.257 Y57.144 E1.45236
G1 X145.975 Y57.342 E1.4656
G1 X146.667 Y57.615 E1.47882
G1 X147.326 Y57.961 E1.49205
G1 X147.944 Y58.376 E1.50529
G1 X148.661 Y58.997 E1.52215
G1 X148.797 Y59.132 E1.52555
G1 X149.296 Y59.684 E1.53878
G1 X149.734 Y60.286 E1.55201
G1 X150.104 Y60.932 E1.56525
G1 X150.403 Y61.614 E1.57849
G1 X150.626 Y62.323 E1.5917
G1 X150.773 Y63.053 E1.60493
G1 X150.845 Y64.05 E1.6227
G1 X150.844 Y170.95 E3.52295
G1 X150.804 Y171.693 E3.53618
G1 X150.685 Y172.428 E3.54942
G1 X150.487 Y173.146 E3.56266
G1 X150.214 Y173.838 E3.57588
G1 X149.868 Y174.497 E3.58911
G1 X149.453 Y175.115 E3.60234
G1 X148.832 Y175.832 E3.6192
G1 X148.697 Y175.968 E3.62261
G1 X148.145 Y176.467 E3.63584
G1 X147.543 Y176.905 E3.64907
G1 X146.897 Y177.275 E3.66231
G1 X146.215 Y177.574 E3.67554
G1 X145.506 Y177.797 E3.68875
G1 X144.776 Y177.944 E3.70199
G1 X143.779 Y178.016 E3.71976
G1 X69.221 Y178.015 E5.0451
G1 X68.478 Y177.975 E5.05833
G1 X67.743 Y177.856 E5.07156
G1 X67.025 Y177.658 E5.0848
G1 X66.333 Y177.385 E5.09803
G1 X65.674 Y177.039 E5.11126
G1 X65.056 Y176.624 E5.12449
G1 X64.339 Y176.003 E5.14135
G1 X64.203 Y175.868 E5.14476
G1 X63.704 Y175.316 E5.15799
G1 X63.266 Y174.714 E5.17122
G1 X62.896 Y174.068 E5.18445
G1 X62.597 Y173.386 E5.19769
G1 X62.374 Y172.677 E5.2109
G1 X62.227 Y171.947 E5.22414
G1 X62.155 Y170.95 E5.24191
G1 X62.156 Y64.05 E7.14216
G1 X62.196 Y63.307 E7.15539
G1 X62.315 Y62.572 E7.16862
G1 X62.513 Y61.854 E7.18186
G1 X62.786 Y61.162 E7.19508
G1 X63.132 Y60.503 E7.20832
G1 X63.547 Y59.885 E7.22155
G1 X64.168 Y59.168 E7.23841
M204 S625
M205 X6 Y6
G0 F5000 X64.466 Y59.464
M204 S500
M205 X5 Y5
G1 F1200 X64.601 Y59.328 E7.24182
G1 X65.137 Y58.845 E7.25464
G1 X65.723 Y58.424 E7.26747
G1 X66.351 Y58.071 E7.28027
G1 X67.016 Y57.789 E7.29311
G1 X67.707 Y57.583 E7.30593
G1 X68.417 Y57.454 E7.31876
G1 X69.221 Y57.404 E7.33308
G1 X143.779 Y57.405 E8.65842
G1 X144.499 Y57.445 E8.67124
G1 X145.211 Y57.564 E8.68407
G1 X145.905 Y57.762 E8.6969
G1 X146.572 Y58.035 E8.70971
G1 X147.206 Y58.38 E8.72254
G1 X147.797 Y58.793 E8.73536
G1 X148.365 Y59.295 E8.74883
G1 X148.501 Y59.43 E8.75224
G1 X148.984 Y59.966 E8.76506
G1 X149.405 Y60.552 E8.77789
G1 X149.758 Y61.18 E8.7907
G1 X150.04 Y61.845 E8.80354
G1 X150.246 Y62.536 E8.81635
G1 X150.375 Y63.246 E8.82918
G1 X150.425 Y64.05 E8.8435
G1 X150.424 Y170.95 E10.74375
G1 X150.384 Y171.67 E10.75657
G1 X150.265 Y172.382 E10.7694
G1 X150.067 Y173.076 E10.78223
G1 X149.794 Y173.743 E10.79504
G1 X149.449 Y174.377 E10.80787
G1 X149.036 Y174.968 E10.82069
G1 X148.534 Y175.536 E10.83416
G1 X148.399 Y175.672 E10.83757
G1 X147.863 Y176.155 E10.8504
G1 X147.277 Y176.576 E10.86322
G1 X146.649 Y176.929 E10.87603
G1 X145.984 Y177.211 E10.88887
G1 X145.293 Y177.417 E10.90169
G1 X144.583 Y177.546 E10.91451
G1 X143.779 Y177.596 E10.92883
G1 X69.221 Y177.595 E12.25417
G1 X68.501 Y177.555 E12.26699
G1 X67.789 Y177.436 E12.27983
G1 X67.095 Y177.238 E12.29265
G1 X66.428 Y176.965 E12.30547
G1 X65.794 Y176.62 E12.3183
G1 X65.203 Y176.207 E12.33111
G1 X64.635 Y175.705 E12.34459
G1 X64.499 Y175.57 E12.34799
G1 X64.016 Y175.034 E12.36082
G1 X63.595 Y174.448 E12.37365
G1 X63.242 Y173.82 E12.38645
G1 X62.96 Y173.155 E12.39929
G1 X62.754 Y172.464 E12.41211
G1 X62.625 Y171.754 E12.42494
G1 X62.575 Y170.95 E12.43926
G1 X62.576 Y64.05 E14.33951
G1 X62.616 Y63.33 E14.35233
G1 X62.735 Y62.618 E14.36516
G1 X62.933 Y61.924 E14.37799
G1 X63.206 Y61.257 E14.3908
G1 X63.551 Y60.623 E14.40363
G1 X63.964 Y60.032 E14.41645
G1 X64.466 Y59.464 E14.42992
M204 S625
M205 X6 Y6
G0 F5000 X64.764 Y59.76
M204 S500
M205 X5 Y5
G1 F1200 X64.899 Y59.624 E14.43333
G1 X65.418 Y59.157 E14.44574
G1 X65.987 Y58.754 E14.45813
G1 X66.598 Y58.418 E14.47053
G1 X67.244 Y58.154 E14.48293
G1 X67.916 Y57.965 E14.49534
G1 X68.605 Y57.855 E14.50774
G1 X69.221 Y57.824 E14.51871
G1 X143.779 Y57.825 E15.84405
G1 X144.476 Y57.865 E15.85646
G1 X145.163 Y57.984 E15.86885
G1 X145.832 Y58.182 E15.88126
G1 X146.475 Y58.454 E15.89367
G1 X147.082 Y58.798 E15.90607
G1 X147.645 Y59.21 E15.91847
G1 X148.069 Y59.593 E15.92863
G1 X148.205 Y59.728 E15.93203
G1 X148.672 Y60.247 E15.94444
G1 X149.075 Y60.816 E15.95684
G1 X149.411 Y61.427 E15.96923
G1 X149.675 Y62.073 E15.98164
G1 X149.864 Y62.745 E15.99405
G1 X149.974 Y63.434 E16.00645
G1 X150.005 Y64.05 E16.01741
G1 X150.004 Y170.95 E17.91767
G1 X149.964 Y171.647 E17.93008
G1 X149.845 Y172.334 E17.94247
G1 X149.647 Y173.003 E17.95487
G1 X149.375 Y173.646 E17.96728
G1 X149.031 Y174.253 E17.97968
G1 X148.619 Y174.816 E17.99209
G1 X148.236 Y175.24 E18.00224
G1 X148.101 Y175.376 E18.00565
G1 X147.582 Y175.843 E18.01806
G1 X147.013 Y176.246 E18.03045
G1 X146.402 Y176.582 E18.04285
G1 X145.756 Y176.846 E18.05525
G1 X145.084 Y177.035 E18.06766
G1 X144.395 Y177.145 E18.08007
G1 X143.779 Y177.176 E18.09103
G1 X69.221 Y177.175 E19.41637
G1 X68.524 Y177.135 E19.42878
G1 X67.837 Y177.016 E19.44118
G1 X67.168 Y176.818 E19.45358
G1 X66.525 Y176.546 E19.46599
G1 X65.918 Y176.202 E19.47839
G1 X65.355 Y175.79 E19.49079
G1 X64.931 Y175.407 E19.50095
G1 X64.795 Y175.272 E19.50435
G1 X64.328 Y174.753 E19.51677
G1 X63.925 Y174.184 E19.52916
G1 X63.589 Y173.573 E19.54156
G1 X63.325 Y172.927 E19.55396
G1 X63.136 Y172.255 E19.56637
G1 X63.026 Y171.566 E19.57877
G1 X62.995 Y170.95 E19.58974
G1 X62.996 Y64.05 E21.48999
G1 X63.036 Y63.353 E21.5024
G1 X63.155 Y62.666 E21.51479
G1 X63.353 Y61.997 E21.52719
G1 X63.625 Y61.354 E21.5396
G1 X63.969 Y60.747 E21.55201
G1 X64.381 Y60.184 E21.56441
G1 X64.764 Y59.76 E21.57456
M204 S625
M205 X6 Y6
G0 F5000 X65.062 Y60.056
M204 S500
M205 X5 Y5
G1 F1200 X65.197 Y59.92 E21.57797
G1 X65.699 Y59.471 E21.58994
G1 X66.25 Y59.085 E21.6019
G1 X66.844 Y58.767 E21.61388
G1 X67.47 Y58.521 E21.62584
G1 X68.122 Y58.352 E21.63781
G1 X68.789 Y58.26 E21.64978
G1 X69.221 Y58.244 E21.65746
G1 X143.779 Y58.245 E22.9828
G1 X144.451 Y58.285 E22.99477
G1 X145.114 Y58.404 E23.00674
G1 X145.757 Y58.601 E23.0187
G1 X146.373 Y58.873 E23.03067
G1 X146.952 Y59.216 E23.04263
G1 X147.487 Y59.626 E23.05461
G1 X147.773 Y59.891 E23.06154
G1 X147.909 Y60.026 E23.06495
G1 X148.358 Y60.528 E23.07692
G1 X148.744 Y61.079 E23.08888
G1 X149.062 Y61.673 E23.10086
G1 X149.308 Y62.299 E23.11281
G1 X149.477 Y62.951 E23.12479
G1 X149.569 Y63.618 E23.13675
G1 X149.585 Y64.05 E23.14444
G1 X149.584 Y170.95 E25.04469
G1 X149.544 Y171.622 E25.05666
G1 X149.425 Y172.285 E25.06863
G1 X149.228 Y172.928 E25.08059
G1 X148.956 Y173.544 E25.09256
G1 X148.613 Y174.123 E25.10452
G1 X148.204 Y174.658 E25.11649
G1 X147.938 Y174.944 E25.12343
G1 X147.803 Y175.08 E25.12684
G1 X147.301 Y175.529 E25.13881
G1 X146.75 Y175.915 E25.15077
G1 X146.156 Y176.233 E25.16275
G1 X145.53 Y176.479 E25.1747
G1 X144.878 Y176.648 E25.18668
G1 X144.211 Y176.74 E25.19864
G1 X143.779 Y176.756 E25.20633
G1 X69.221 Y176.755 E26.53167
G1 X68.549 Y176.715 E26.54364
G1 X67.886 Y176.596 E26.55561
G1 X67.243 Y176.399 E26.56756
G1 X66.627 Y176.127 E26.57953
G1 X66.048 Y175.784 E26.5915
G1 X65.513 Y175.374 E26.60348
G1 X65.227 Y175.109 E26.61041
G1 X65.091 Y174.974 E26.61382
G1 X64.642 Y174.472 E26.62579
G1 X64.256 Y173.921 E26.63775
G1 X63.938 Y173.327 E26.64972
G1 X63.692 Y172.701 E26.66168
G1 X63.523 Y172.049 E26.67365
G1 X63.431 Y171.382 E26.68562
G1 X63.415 Y170.95 E26.69331
G1 X63.416 Y64.05 E28.59356
G1 X63.456 Y63.378 E28.60552
G1 X63.575 Y62.715 E28.6175
G1 X63.772 Y62.072 E28.62945
G1 X64.044 Y61.456 E28.64142
G1 X64.387 Y60.877 E28.65339
G1 X64.796 Y60.342 E28.66536
G1 X65.062 Y60.056 E28.6723
M204 S625
M205 X6 Y6
G0 F5000 X65.36 Y60.351
M204 S500
M205 X5 Y5
G1 F1200 X65.495 Y60.215 E28.67571
G1 X65.979 Y59.785 E28.68721
G1 X66.512 Y59.417 E28.69873
G1 X67.086 Y59.118 E28.71023
G1 X67.693 Y58.891 E28.72175
G1 X68.324 Y58.741 E28.73328
G1 X69.221 Y58.664 E28.74929
G1 X143.779 Y58.665 E30.07463
G1 X144.426 Y58.705 E30.08615
G1 X145.062 Y58.824 E30.09765
G1 X145.679 Y59.021 E30.10916
G1 X146.268 Y59.292 E30.12069
G1 X146.818 Y59.634 E30.1322
G1 X147.478 Y60.189 E30.14753
G1 X147.614 Y60.324 E30.15094
G1 X148.044 Y60.808 E30.16245
G1 X148.412 Y61.341 E30.17396
G1 X148.711 Y61.915 E30.18546
G1 X148.938 Y62.522 E30.19698
G1 X149.088 Y63.153 E30.20851
G1 X149.165 Y64.05 E30.22452
G1 X149.164 Y170.95 E32.12477
G1 X149.124 Y171.597 E32.13629
G1 X149.005 Y172.233 E32.14779
G1 X148.808 Y172.85 E32.15931
G1 X148.537 Y173.439 E32.17083
G1 X148.195 Y173.989 E32.18235
G1 X147.64 Y174.649 E32.19767
G1 X147.505 Y174.785 E32.20108
G1 X147.021 Y175.215 E32.21259
G1 X146.488 Y175.583 E32.2241
G1 X145.914 Y175.882 E32.23561
G1 X145.307 Y176.109 E32.24713
G1 X144.676 Y176.259 E32.25866
G1 X143.779 Y176.336 E32.27466
G1 X69.221 Y176.335 E33.6
G1 X68.574 Y176.295 E33.61152
G1 X67.938 Y176.176 E33.62303
G1 X67.321 Y175.979 E33.63454
G1 X66.732 Y175.708 E33.64606
G1 X66.182 Y175.366 E33.65758
G1 X65.522 Y174.811 E33.67291
G1 X65.386 Y174.676 E33.67631
G1 X64.956 Y174.192 E33.68782
G1 X64.588 Y173.659 E33.69933
G1 X64.289 Y173.085 E33.71084
G1 X64.062 Y172.478 E33.72236
G1 X63.912 Y171.847 E33.73389
G1 X63.835 Y170.95 E33.74989
G1 X63.836 Y64.05 E35.65014
G1 X63.876 Y63.403 E35.66167
G1 X63.995 Y62.767 E35.67317
G1 X64.192 Y62.15 E35.68468
G1 X64.463 Y61.561 E35.69621
G1 X64.805 Y61.011 E35.70772
G1 X65.36 Y60.351 E35.72305
M204 S625
M205 X6 Y6
G0 F5000 X65.658 Y60.647
M204 S500
M205 X5 Y5
G1 F1200 X65.793 Y60.511 E35.72645
G1 X66.258 Y60.099 E35.7375
G1 X66.772 Y59.751 E35.74853
G1 X67.327 Y59.471 E35.75958
G1 X67.913 Y59.264 E35.77063
G1 X68.521 Y59.135 E35.78168
G1 X69.221 Y59.084 E35.79415
G1 X143.779 Y59.085 E37.1195
G1 X144.399 Y59.125 E37.13054
G1 X145.009 Y59.244 E37.14159
G1 X145.598 Y59.441 E37.15263
G1 X146.157 Y59.711 E37.16366
G1 X146.677 Y60.051 E37.17471
G1 X147.182 Y60.487 E37.18657
G1 X147.318 Y60.622 E37.18997
G1 X147.73 Y61.087 E37.20102
G1 X148.078 Y61.601 E37.21205
G1 X148.358 Y62.156 E37.2231
G1 X148.565 Y62.742 E37.23415
G1 X148.694 Y63.35 E37.2452
G1 X148.745 Y64.05 E37.25767
G1 X148.744 Y170.95 E39.15792
G1 X148.704 Y171.57 E39.16897
G1 X148.585 Y172.18 E39.18002
G1 X148.388 Y172.769 E39.19106
G1 X148.118 Y173.328 E39.20209
G1 X147.778 Y173.848 E39.21314
G1 X147.342 Y174.353 E39.225
G1 X147.207 Y174.489 E39.2284
G1 X146.742 Y174.901 E39.23945
G1 X146.228 Y175.249 E39.25048
G1 X145.673 Y175.529 E39.26153
G1 X145.087 Y175.736 E39.27258
G1 X144.479 Y175.865 E39.28363
G1 X143.779 Y175.916 E39.2961
G1 X69.221 Y175.915 E40.62144
G1 X68.601 Y175.875 E40.63249
G1 X67.991 Y175.756 E40.64353
G1 X67.402 Y175.559 E40.65457
G1 X66.843 Y175.289 E40.66561
G1 X66.323 Y174.949 E40.67665
G1 X65.818 Y174.513 E40.68851
G1 X65.682 Y174.378 E40.69192
G1 X65.27 Y173.913 E40.70296
G1 X64.922 Y173.399 E40.714
G1 X64.642 Y172.844 E40.72505
G1 X64.435 Y172.258 E40.73609
G1 X64.306 Y171.65 E40.74714
G1 X64.255 Y170.95 E40.75962
G1 X64.256 Y64.05 E42.65987
G1 X64.296 Y63.43 E42.67092
G1 X64.415 Y62.82 E42.68196
G1 X64.612 Y62.231 E42.693
G1 X64.882 Y61.672 E42.70404
G1 X65.222 Y61.152 E42.71508
G1 X65.658 Y60.647 E42.72694
M204 S625
M205 X6 Y6
G0 F5000 X65.956 Y60.943
M204 S500
M205 X5 Y5
G1 F1200 X66.091 Y60.807 E42.73035
G1 X66.537 Y60.415 E42.7409
G1 X67.031 Y60.086 E42.75145
G1 X67.565 Y59.827 E42.762
G1 X68.129 Y59.641 E42.77256
G1 X68.713 Y59.533 E42.78312
G1 X69.221 Y59.504 E42.79216
G1 X143.779 Y59.505 E44.1175
G1 X144.371 Y59.545 E44.12805
G1 X144.953 Y59.664 E44.13861
G1 X145.513 Y59.86 E44.14916
G1 X146.042 Y60.13 E44.15972
G1 X146.53 Y60.468 E44.17027
G1 X146.886 Y60.785 E44.17874
G1 X147.022 Y60.92 E44.18215
G1 X147.414 Y61.366 E44.1927
G1 X147.743 Y61.86 E44.20325
G1 X148.002 Y62.394 E44.2138
G1 X148.188 Y62.958 E44.22436
G1 X148.296 Y63.542 E44.23492
G1 X148.325 Y64.05 E44.24396
G1 X148.324 Y170.95 E46.14421
G1 X148.284 Y171.542 E46.15476
G1 X148.165 Y172.124 E46.16532
G1 X147.969 Y172.684 E46.17587
G1 X147.699 Y173.213 E46.18642
G1 X147.361 Y173.701 E46.19698
G1 X147.044 Y174.057 E46.20545
G1 X146.909 Y174.193 E46.20886
G1 X146.463 Y174.585 E46.21941
G1 X145.969 Y174.914 E46.22996
G1 X145.435 Y175.173 E46.24051
G1 X144.871 Y175.359 E46.25107
G1 X144.287 Y175.467 E46.26163
G1 X143.779 Y175.496 E46.27067
G1 X69.221 Y175.495 E47.59601
G1 X68.629 Y175.455 E47.60656
G1 X68.047 Y175.336 E47.61712
G1 X67.487 Y175.14 E47.62767
G1 X66.958 Y174.87 E47.63822
G1 X66.47 Y174.532 E47.64878
G1 X66.114 Y174.215 E47.65725
G1 X65.978 Y174.08 E47.66066
G1 X65.586 Y173.634 E47.67121
G1 X65.257 Y173.14 E47.68176
G1 X64.998 Y172.606 E47.69231
G1 X64.812 Y172.042 E47.70287
G1 X64.704 Y171.458 E47.71343
G1 X64.675 Y170.95 E47.72247
G1 X64.676 Y64.05 E49.62272
G1 X64.716 Y63.458 E49.63327
G1 X64.835 Y62.876 E49.64383
G1 X65.031 Y62.316 E49.65438
G1 X65.301 Y61.787 E49.66493
G1 X65.639 Y61.299 E49.67549
G1 X65.956 Y60.943 E49.68396
M204 S625
M205 X6 Y6
G0 F5000 X66.254 Y61.239
M204 S500
M205 X5 Y5
G1 F1200 X66.389 Y61.103 E49.68737
G1 X66.814 Y60.732 E49.69739
G1 X67.288 Y60.424 E49.70744
G1 X67.8 Y60.186 E49.71748
G1 X68.34 Y60.022 E49.72751
G1 X68.898 Y59.937 E49.73754
G1 X69.221 Y59.924 E49.74329
G1 X143.779 Y59.925 E51.06863
G1 X144.342 Y59.965 E51.07866
G1 X144.894 Y60.084 E51.0887
G1 X145.424 Y60.28 E51.09875
G1 X145.92 Y60.548 E51.10877
G1 X146.374 Y60.884 E51.11881
G1 X146.59 Y61.083 E51.12403
G1 X146.726 Y61.218 E51.12744
G1 X147.097 Y61.643 E51.13746
G1 X147.405 Y62.117 E51.14751
G1 X147.643 Y62.629 E51.15755
G1 X147.807 Y63.169 E51.16758
G1 X147.892 Y63.727 E51.17761
G1 X147.905 Y64.05 E51.18336
G1 X147.904 Y170.95 E53.08361
G1 X147.864 Y171.513 E53.09365
G1 X147.745 Y172.065 E53.10368
G1 X147.549 Y172.595 E53.11373
G1 X147.281 Y173.091 E53.12375
G1 X146.945 Y173.545 E53.13379
G1 X146.746 Y173.761 E53.13901
G1 X146.611 Y173.897 E53.14242
G1 X146.186 Y174.268 E53.15245
G1 X145.712 Y174.576 E53.16249
G1 X145.2 Y174.814 E53.17253
G1 X144.66 Y174.978 E53.18256
G1 X144.102 Y175.063 E53.1926
G1 X143.779 Y175.076 E53.19834
G1 X69.221 Y175.075 E54.52368
G1 X68.658 Y175.035 E54.53372
G1 X68.106 Y174.916 E54.54375
G1 X67.576 Y174.72 E54.5538
G1 X67.08 Y174.452 E54.56382
G1 X66.626 Y174.116 E54.57386
G1 X66.41 Y173.917 E54.57908
G1 X66.274 Y173.782 E54.58249
G1 X65.903 Y173.357 E54.59252
G1 X65.595 Y172.883 E54.60256
G1 X65.357 Y172.371 E54.6126
G1 X65.193 Y171.831 E54.62263
G1 X65.108 Y171.273 E54.63267
G1 X65.095 Y170.95 E54.63841
G1 X65.096 Y64.05 E56.53866
G1 X65.136 Y63.487 E56.5487
G1 X65.255 Y62.935 E56.55874
G1 X65.451 Y62.405 E56.56878
G1 X65.719 Y61.909 E56.5788
G1 X66.055 Y61.455 E56.58884
G1 X66.254 Y61.239 E56.59406
M204 S625
M205 X6 Y6
G0 F5000 X66.552 Y61.535
M204 S500
M205 X5 Y5
G1 F1200 X66.687 Y61.399 E56.59747
G1 X67.091 Y61.049 E56.60697
G1 X67.542 Y60.763 E56.61646
G1 X68.031 Y60.548 E56.62596
G1 X68.546 Y60.408 E56.63545
G1 X69.221 Y60.344 E56.6475
G1 X143.779 Y60.345 E57.97284
G1 X144.312 Y60.385 E57.98234
G1 X144.832 Y60.504 E57.99182
G1 X145.329 Y60.699 E58.00131
G1 X145.792 Y60.966 E58.01081
